svg/24/transition--filled.svg

<svg width="24" height="24" viewBox="0 0 24 24" fill="currentColor" xmlns="http://www.w3.org/2000/svg"><path d="M3 5.00001C3 3.89544 3.89543 3.00001 5 3.00001L7.5 3V21L5 21C3.89543 21 3 20.1046 3 19V5.00001Z"/><path d="M11 3.00001H19C20.1046 3.00001 21 3.89544 21 5.00001V19C21 20.1046 20.1046 21 19 21H11C9.89543 21 9 20.1046 9 19V5.00001C9 3.89544 9.89543 3.00001 11 3.00001Z"/></svg>

<svg xmlns="http://www.w3.org/2000/svg" width="24" height="24" fill="currentColor" viewBox="0 0 24 24">
  <path d="M3 5a2 2 0 0 1 2-2h2.5v18H5a2 2 0 0 1-2-2V5Zm8-2h8a2 2 0 0 1 2 2v14a2 2 0 0 1-2 2h-8a2 2 0 0 1-2-2V5a2 2 0 0 1 2-2Z"/>
</svg>
